icons/1_Primary/Smartschool.svg

<svg xmlns="http://www.w3.org/2000/svg" width="1024" height="1024" fill="none">
   <g clip-path="url(#a)">
      <path fill="#FF837D" d="M512 1024c282.77 0 512-229.23 512-512S794.77 0 512 0 0 229.23 0 512s229.23 512 512 512Z"/>
      <path fill="#fff" d="M343 300.83c-24.23 0-42.2 18-42.2 42.2v337.6c0 24.23 18 42.2 42.2 42.2h337.6c24.23 0 42.2-18 42.2-42.2V343c0-24.23-18-42.2-42.2-42.2H343v.03Zm186.06 52.75c33.64 0 58.06 7.17 74.19 15.24l-13.36 44.37a138.429 138.429 0 0 0-62.21-14.34c-35.94 0-51.15 18.38-51.15 36.3 0 23.3 18 34.06 59.44 49.74 53.91 19.72 79.72 46.16 79.72 89.63 0 48.85-37.78 91-117.5 91-33.18 0-67.28-9-84.33-19.27l12.9-45.71c18 10.31 46.08 19.27 75.11 19.27 35.94 0 56.22-16.58 56.22-41.23 0-22.86-15.67-36.3-54.84-50.19-51.61-17.93-84.32-44.37-84.32-87.84 0-49.78 42.39-86.97 110.13-86.97Z"/>
   </g>
   <defs>
      <clipPath id="a">
         <path fill="#fff" d="M0 0h1024v1024H0z"/>
      </clipPath>
   </defs>
</svg>

<svg width="1024" height="1024" viewBox="0 0 1024 1024" fill="none" xmlns="http://www.w3.org/2000/svg">
<g clip-path="url(#clip0_2_3489)">
<path d="M512 1024C794.77 1024 1024 794.77 1024 512C1024 229.23 794.77 0 512 0C229.23 0 0 229.23 0 512C0 794.77 229.23 1024 512 1024Z" fill="#FF837D"/>
<path d="M343 300.83C318.77 300.83 300.8 318.83 300.8 343.03V680.63C300.8 704.86 318.8 722.83 343 722.83H680.6C704.83 722.83 722.8 704.83 722.8 680.63V343C722.8 318.77 704.8 300.8 680.6 300.8H343V300.83ZM529.06 353.58C562.7 353.58 587.12 360.75 603.25 368.82L589.89 413.19C570.554 403.628 549.251 398.718 527.68 398.85C491.74 398.85 476.53 417.23 476.53 435.15C476.53 458.45 494.53 469.21 535.97 484.89C589.88 504.61 615.69 531.05 615.69 574.52C615.69 623.37 577.91 665.52 498.19 665.52C465.01 665.52 430.91 656.52 413.86 646.25L426.76 600.54C444.76 610.85 472.84 619.81 501.87 619.81C537.81 619.81 558.09 603.23 558.09 578.58C558.09 555.72 542.42 542.28 503.25 528.39C451.64 510.46 418.93 484.02 418.93 440.55C418.93 390.77 461.32 353.58 529.06 353.58Z" fill="white"/>
</g>
<defs>
<clipPath id="clip0_2_3489">
<rect width="1024" height="1024" fill="white"/>
</clipPath>
</defs>
</svg>
